X:701
T:DOCTOR O'NEILL
N:"collected by Cronin"
B:O'NEILL'S 701
Z:Transcribed by A. LEE WORMAN
M:6/8
L:1/8
K:D
A|d3 ~AFD|E2 F G2 A|BGB Bcd|AGF EFA|
d3 ~AFD|E2 F G2 A|BGB Bcd|AFD D2:|
||A|d3 ~ceA|dfe dcB|AFA Bcd|AGF EFA|
d3 ~ceA|dfe dcB|AFA Bcd|AFD D2:|
||g|gfef afd|dfd fed|gbg faf|gee e2 g|
gfef afd|dfd fed|gbg faf|fdd d2:|
||g|gfdf ece|edcB AFA|AFd AFd|AGF E2 g|
gfdf ece|dcB AFA|AFA Bcd|AFD D2:|
||G|FAF GBG|FAG FED|FAF GBG|AGF E2 G|
FAF GBG|FAG FED|BGB Bcd|AFD D2:|
